dist/svg/cloud.svg

<!-- Generated by Trend Micro Style Portal -->
<svg version="1.1" xmlns="http://www.w3.org/2000/svg" width="16" height="16" viewBox="0 0 16 16">
  <title>cloud</title>
  <path fill="rgb(34,34,34)" d="M13.469 7.045c0-0.015 0.004-0.029 0.004-0.045 0-0.013 0-0.029 0-0.045 0-2.184-1.771-3.955-3.955-3.955-1.628 0-3.027 0.984-3.633 2.39l-0.010 0.026c-0.389-0.263-0.869-0.421-1.385-0.421-1.376 0-2.491 1.115-2.491 2.491 0 0.198 0.023 0.39 0.067 0.575l-0.003-0.017c-1.18 0.214-2.063 1.233-2.063 2.459 0 1.379 1.118 2.497 2.497 2.497 0.001 0 0.002 0 0.003 0l10.5-0.003c0.010 0 0.019 0.003 0.029 0.003 1.644-0.014 2.971-1.35 2.971-2.996 0-1.49-1.088-2.727-2.514-2.957l-0.017-0.002z"></path>
</svg>

<svg width="16" height="16" viewBox="0 0 16 16" fill="rgb(34, 34, 34)" xmlns="http://www.w3.org/2000/svg"><title>cloud</title><path d="M13.469 7.045C13.469 7.03 13.473 7.016 13.473 7C13.473 6.987 13.473 6.971 13.473 6.955C13.473 4.771 11.702 3 9.518 3C7.89 3 6.491 3.984 5.885 5.39L5.875 5.416C5.486 5.153 5.006 4.995 4.49 4.995C3.114 4.995 1.999 6.11 1.999 7.486C1.999 7.684 2.022 7.876 2.066 8.061L2.063 8.044C0.883 8.258 0 9.277 0 10.503C0 11.882 1.118 13 2.497 13C2.498 13 2.499 13 2.5 13L13 12.997C13.01 12.997 13.019 13 13.029 13C14.673 12.986 16 11.65 16 10.004C16 8.514 14.912 7.277 13.486 7.047L13.469 7.045Z" fill="rgb(34, 34, 34)" fill-opacity="1.00"/></svg>
